;FLAVOR:RepRap
M104 S210.000000
M109 S210.000000
G28 ; Home
G1 Z15.0 F6000 ;move the platform down 15mm
;Prime the extruder
G92 E0
G1 F200 E3
G92 E0
;Generated with Cura_SteamEngine master
;LAYER_COUNT:98
;LAYER:0
M107
G0 F7200.000000 X37.131 Y37.404 Z0.300
G0 X39.508 Y36.224
;TYPE:SKIRT
G1 F1800.000 X40.762 Y36.200 E0.02359
G1 X59.493 Y36.200 E0.37593
G1 X60.199 Y36.210 E0.38921
G1 X60.482 Y36.222 E0.39454
G1 X60.742 Y36.239 E0.39944
G1 X63.566 Y36.384 E0.45264
G1 X66.394 Y36.448 E0.50585
G1 X69.161 Y36.434 E0.55789
G1 X70.951 Y36.400 E0.59157
G1 X89.293 Y36.400 E0.93659
G1 X89.999 Y36.410 E0.94988
G1 X90.177 Y36.418 E0.95323
G1 X90.478 Y36.444 E0.95891
G1 X90.951 Y36.543 E0.96800
G1 X91.006 Y36.556 E0.96906
G1 X91.442 Y36.718 E0.97781
G1 X91.493 Y36.739 E0.97885
G1 X91.959 Y36.996 E0.98886
G1 X91.983 Y37.010 E0.98938
G1 X92.308 Y37.258 E0.99707
G1 X92.392 Y37.327 E0.99912
G1 X92.748 Y37.695 E1.00875
G1 X92.755 Y37.703 E1.00895
G1 X93.062 Y38.133 E1.01889
G1 X93.077 Y38.155 E1.01939
G1 X93.281 Y38.557 E1.02787
G1 X93.312 Y38.623 E1.02924
G1 X93.468 Y39.093 E1.03856
G1 X93.485 Y39.149 E1.03966
G1 X93.558 Y39.569 E1.04768
G1 X93.575 Y39.685 E1.04988
G1 X93.576 Y39.708 E1.05031
G1 X93.600 Y40.962 E1.07391
G1 X93.600 Y59.293 E1.41872
G1 X93.590 Y59.999 E1.43201
G1 X93.582 Y60.177 E1.43536
G1 X93.556 Y60.478 E1.44104
G1 X93.457 Y60.951 E1.45013
G1 X93.444 Y61.006 E1.45119
G1 X93.281 Y61.444 E1.45998
G1 X93.261 Y61.493 E1.46098
G1 X93.010 Y61.949 E1.47077
G1 X92.990 Y61.983 E1.47151
G1 X92.742 Y62.308 E1.47920
G1 X92.673 Y62.392 E1.48125
G1 X92.305 Y62.748 E1.49088
G1 X92.297 Y62.755 E1.49108
G1 X91.867 Y63.062 E1.50102
G1 X91.845 Y63.077 E1.50152
G1 X91.443 Y63.281 E1.51000
G1 X91.377 Y63.312 E1.51137
G1 X90.907 Y63.468 E1.52068
G1 X90.851 Y63.485 E1.52179
G1 X90.431 Y63.558 E1.52980
G1 X90.315 Y63.575 E1.53201
G1 X90.292 Y63.576 E1.53244
G1 X89.038 Y63.600 E1.55604
G1 X70.713 Y63.600 E1.90074
G1 X68.597 Y63.570 E1.94055
G1 X65.768 Y63.570 E1.99376
G1 X61.736 Y63.708 E2.06965
G1 X60.484 Y63.776 E2.09324
G1 X59.238 Y63.800 E2.11668
G1 X40.507 Y63.800 E2.46902
G1 X39.801 Y63.790 E2.48230
G1 X39.623 Y63.782 E2.48565
G1 X39.322 Y63.756 E2.49133
G1 X38.849 Y63.657 E2.50042
G1 X38.794 Y63.644 E2.50149
G1 X38.356 Y63.481 E2.51028
G1 X38.304 Y63.460 E2.51133
G1 X37.841 Y63.204 E2.52129
G1 X37.817 Y63.190 E2.52181
G1 X37.492 Y62.942 E2.52950
G1 X37.408 Y62.873 E2.53154
G1 X37.052 Y62.505 E2.54117
G1 X37.045 Y62.497 E2.54137
G1 X36.738 Y62.067 E2.55131
G1 X36.723 Y62.045 E2.55181
G1 X36.519 Y61.643 E2.56029
G1 X36.488 Y61.577 E2.56167
G1 X36.332 Y61.107 E2.57098
G1 X36.315 Y61.051 E2.57208
G1 X36.242 Y60.631 E2.58010
G1 X36.225 Y60.515 E2.58231
G1 X36.224 Y60.487 E2.58283
G1 X36.200 Y59.238 E2.60633
G1 X36.200 Y40.507 E2.95867
G1 X36.210 Y39.800 E2.97197
G1 X36.218 Y39.623 E2.97531
G1 X36.244 Y39.322 E2.98099
G1 X36.343 Y38.849 E2.99008
G1 X36.356 Y38.794 E2.99114
G1 X36.519 Y38.356 E2.99993
G1 X36.539 Y38.307 E3.00093
G1 X36.805 Y37.825 E3.01128
G1 X36.810 Y37.817 E3.01146
G1 X37.069 Y37.479 E3.01947
G1 X37.131 Y37.404 E3.02130
G1 X37.495 Y37.052 E3.03083
G1 X37.503 Y37.045 E3.03103
G1 X37.933 Y36.738 E3.04097
G1 X37.955 Y36.723 E3.04147
G1 X38.357 Y36.519 E3.04995
G1 X38.423 Y36.488 E3.05132
G1 X38.893 Y36.332 E3.06063
G1 X38.949 Y36.315 E3.06173
G1 X39.369 Y36.242 E3.06975
G1 X39.485 Y36.225 E3.07196
G1 X39.508 Y36.224 E3.07239
G0 F7200.00000 X40.257 Y36.600
G1 F1800.000 X59.493 Y36.600 E3.43423
G1 X60.199 Y36.610 E3.44751
G1 X60.388 Y36.618 E3.45107
G1 X60.447 Y36.622 E3.45218
G1 X63.271 Y36.773 E3.50538
G1 X66.099 Y36.843 E3.55859
G1 X69.240 Y36.811 E3.61768
G1 X70.457 Y36.800 E3.64057
G1 X89.293 Y36.800 E3.99489
G1 X89.999 Y36.810 E4.00817
G1 X90.156 Y36.817 E4.01113
G1 X90.473 Y36.846 E4.01711
G1 X90.495 Y36.849 E4.01753
G1 X90.506 Y36.851 E4.01774
G1 X90.656 Y36.882 E4.02062
G1 X90.955 Y36.959 E4.02643
G1 X91.008 Y36.974 E4.02747
G1 X91.139 Y37.024 E4.03010
G1 X91.442 Y37.155 E4.03631
G1 X91.454 Y37.160 E4.03656
G1 X91.482 Y37.175 E4.03716
G1 X91.584 Y37.234 E4.03937
G1 X91.873 Y37.418 E4.04582
G1 X91.874 Y37.419 E4.04584
G1 X91.881 Y37.424 E4.04601
G1 X92.030 Y37.545 E4.04962
G1 X92.254 Y37.743 E4.05524
G1 X92.280 Y37.769 E4.05593
G1 X92.361 Y37.859 E4.05821
G1 X92.579 Y38.125 E4.06468
G1 X92.588 Y38.136 E4.06495
G1 X92.599 Y38.151 E4.06530
G1 X92.676 Y38.271 E4.06798
G1 X92.850 Y38.569 E4.07447
G1 X92.853 Y38.573 E4.07456
G1 X92.855 Y38.579 E4.07468
G1 X92.913 Y38.709 E4.07736
G1 X93.041 Y39.037 E4.08398
G1 X93.048 Y39.058 E4.08440
G1 X93.079 Y39.178 E4.08673
G1 X93.140 Y39.460 E4.09216
G1 X93.189 Y39.981 E4.10200
G1 X93.190 Y40.000 E4.10236
G1 X93.198 Y40.247 E4.10701
G1 X93.200 Y40.406 E4.11000
G1 X93.200 Y59.278 E4.46499
G1 X93.190 Y59.999 E4.47856
G1 X93.183 Y60.156 E4.48151
G1 X93.154 Y60.473 E4.48750
G1 X93.151 Y60.495 E4.48792
G1 X93.150 Y60.504 E4.48809
G1 X93.121 Y60.643 E4.49076
G1 X93.041 Y60.956 E4.49684
G1 X93.030 Y60.995 E4.49760
G1 X93.027 Y61.005 E4.49779
G1 X92.976 Y61.139 E4.50049
G1 X92.843 Y61.446 E4.50678
G1 X92.840 Y61.454 E4.50695
G1 X92.825 Y61.482 E4.50754
G1 X92.766 Y61.584 E4.50976
G1 X92.582 Y61.873 E4.51620
G1 X92.578 Y61.878 E4.51632
G1 X92.576 Y61.881 E4.51639
G1 X92.455 Y62.030 E4.52000
G1 X92.257 Y62.254 E4.52563
G1 X92.231 Y62.280 E4.52632
G1 X92.147 Y62.356 E4.52845
G1 X91.860 Y62.591 E4.53543
G1 X91.858 Y62.593 E4.53548
G1 X91.848 Y62.599 E4.53570
G1 X91.729 Y62.676 E4.53837
G1 X91.426 Y62.853 E4.54497
G1 X91.416 Y62.858 E4.54518
G1 X91.286 Y62.915 E4.54785
G1 X90.960 Y63.042 E4.55443
G1 X90.944 Y63.047 E4.55474
G1 X90.822 Y63.079 E4.55712
G1 X90.535 Y63.141 E4.56264
G1 X90.019 Y63.189 E4.57239
G1 X89.999 Y63.190 E4.57276
G1 X89.753 Y63.198 E4.57739
G1 X89.543 Y63.200 E4.58134
G1 X70.707 Y63.200 E4.93566
G1 X69.076 Y63.177 E4.96634
G1 X69.018 Y63.175 E4.96743
G1 X68.892 Y63.174 E4.96980
G1 X68.586 Y63.170 E4.97556
G1 X68.586 Y63.173 E4.97562
G1 X66.189 Y63.160 E5.02071
G1 X63.362 Y63.225 E5.07390
G1 X61.060 Y63.338 E5.11725
G1 X60.189 Y63.391 E5.13367
G1 X59.953 Y63.398 E5.13811
G1 X59.743 Y63.400 E5.14206
G1 X40.507 Y63.400 E5.50390
G1 X39.801 Y63.390 E5.51718
G1 X39.644 Y63.383 E5.52014
G1 X39.327 Y63.354 E5.52612
G1 X39.305 Y63.351 E5.52654
G1 X39.294 Y63.349 E5.52675
G1 X39.144 Y63.318 E5.52963
G1 X38.839 Y63.239 E5.53556
G1 X38.792 Y63.226 E5.53648
G1 X38.659 Y63.175 E5.53916
G1 X38.350 Y63.041 E5.54549
G1 X38.346 Y63.040 E5.54557
G1 X38.317 Y63.024 E5.54619
G1 X38.216 Y62.966 E5.54838
G1 X37.926 Y62.781 E5.55485
G1 X37.918 Y62.776 E5.55503
G1 X37.770 Y62.655 E5.55863
G1 X37.546 Y62.457 E5.56425
G1 X37.520 Y62.431 E5.56494
G1 X37.439 Y62.341 E5.56722
G1 X37.209 Y62.060 E5.57405
G1 X37.201 Y62.049 E5.57431
G1 X37.201 Y62.048 E5.57433
G1 X37.124 Y61.929 E5.57699
G1 X36.947 Y61.626 E5.58359
G1 X36.942 Y61.615 E5.58382
G1 X36.884 Y61.483 E5.58653
G1 X36.755 Y61.152 E5.59321
G1 X36.752 Y61.142 E5.59341
G1 X36.721 Y61.022 E5.59574
G1 X36.659 Y60.735 E5.60127
G1 X36.610 Y60.209 E5.61120
G1 X36.610 Y60.199 E5.61139
G1 X36.602 Y59.953 E5.61602
G1 X36.600 Y59.743 E5.61997
G1 X36.600 Y40.507 E5.98181
G1 X36.610 Y39.799 E5.99513
G1 X36.617 Y39.636 E5.99820
G1 X36.646 Y39.327 E6.00404
G1 X36.651 Y39.291 E6.00472
G1 X36.653 Y39.281 E6.00491
G1 X36.682 Y39.144 E6.00755
G1 X36.761 Y38.839 E6.01347
G1 X36.776 Y38.786 E6.01451
G1 X36.777 Y38.784 E6.01455
G1 X36.824 Y38.661 E6.01703
G1 X36.960 Y38.347 E6.02346
G1 X36.975 Y38.318 E6.02408
G1 X37.035 Y38.215 E6.02632
G1 X37.225 Y37.917 E6.03297
G1 X37.345 Y37.770 E6.03654
G1 X37.543 Y37.546 E6.04216
G1 X37.569 Y37.520 E6.04285
G1 X37.659 Y37.439 E6.04513
G1 X37.940 Y37.209 E6.05196
G1 X37.942 Y37.207 E6.05202
G1 X37.952 Y37.201 E6.05223
G1 X38.071 Y37.124 E6.05490
G1 X38.374 Y36.947 E6.06150
G1 X38.387 Y36.941 E6.06177
G1 X38.517 Y36.884 E6.06444
G1 X38.840 Y36.758 E6.07096
G1 X38.858 Y36.752 E6.07132
G1 X38.978 Y36.721 E6.07365
G1 X39.265 Y36.659 E6.07917
G1 X39.781 Y36.611 E6.08892
G1 X39.801 Y36.610 E6.08930
G1 X40.047 Y36.602 E6.09393
G1 X40.257 Y36.600 E6.09788
G0 F7200.00000 X39.800 Y39.800
;TYPE:SUPPORT
G1 F1800.000 X60.200 Y39.800 E6.48161
G1 X60.200 Y60.200 E6.86535
G1 X39.800 Y60.200 E7.24909
G1 X39.800 Y39.800 E7.63282
G0 F7200.00000 X39.760 Y42.560
G1 F1800.000 X60.240 Y42.560 E8.01806
G0 F7200.00000 X58.520 Y39.760
G1 F1800.000 X58.520 Y60.240 E8.40330
G0 F7200.00000 X60.240 Y58.520
G1 F1800.000 X39.760 Y58.520 E8.78854
G0 F7200.00000 X42.560 Y60.240
G1 F1800.000 X42.560 Y39.760 E9.17378
G0 F7200.00000 X47.880 Y39.760
G1 F1800.000 X47.880 Y60.240 E9.55902
G0 F7200.00000 X53.200 Y60.240
G1 F1800.000 X53.200 Y39.760 E9.94426
G0 F7200.00000 X60.240 Y47.880
G1 F1800.000 X39.760 Y47.880 E10.32950
G0 F7200.00000 X39.760 Y53.200
G1 F1800.000 X60.240 Y53.200 E10.71474
G1 F1500.00000 E6.21474
G0 F7200.00000 X68.460 Y53.200
G0 X70.640 Y53.200
G0 X70.799 Y53.262
;TYPE:SKIN
G1 F1500.000 E10.71474
G1 F1800.00000 X76.735 Y59.199 E10.87267
G0 F7200.00000 X76.170 Y59.199
G1 F1800.000 X70.799 Y53.828 E11.01555
G0 F7200.00000 X70.799 Y54.394
G1 F1800.000 X75.604 Y59.199 E11.14337
G0 F7200.00000 X75.038 Y59.199
G1 F1800.000 X70.799 Y54.959 E11.25615
G0 F7200.00000 X70.799 Y55.525
G1 F1800.000 X74.473 Y59.199 E11.35389
G0 F7200.00000 X73.907 Y59.199
G1 F1800.000 X70.799 Y56.091 E11.43656
G0 F7200.00000 X70.799 Y56.656
G1 F1800.000 X73.341 Y59.199 E11.50420
G0 F7200.00000 X72.776 Y59.199
G1 F1800.000 X70.799 Y57.222 E11.55679
G0 F7200.00000 X70.799 Y57.788
G1 F1800.000 X72.210 Y59.199 E11.59433
G0 F7200.00000 X71.644 Y59.199
G1 F1800.000 X70.799 Y58.353 E11.61682
G0 F7200.00000 X70.799 Y58.919
G1 F1800.000 X71.079 Y59.199 E11.62427
G0 F7200.00000 X77.301 Y59.199
G1 F1800.000 X70.799 Y52.697 E11.79724
G0 F7200.00000 X70.799 Y52.131
G1 F1800.000 X77.867 Y59.199 E11.98526
G0 F7200.00000 X78.432 Y59.199
G1 F1800.000 X70.799 Y51.565 E12.18833
G0 F7200.00000 X70.799 Y51.000
G1 F1800.000 X78.998 Y59.199 E12.40644
G0 F7200.00000 X79.564 Y59.199
G1 F1800.000 X70.799 Y50.434 E12.63961
G0 F7200.00000 X70.799 Y49.868
G1 F1800.000 X80.130 Y59.199 E12.88783
G0 F7200.00000 X80.695 Y59.199
G1 F1800.000 X70.799 Y49.303 E13.15109
G0 F7200.00000 X70.799 Y48.737
G1 F1800.000 X81.261 Y59.199 E13.42940
G0 F7200.00000 X81.827 Y59.199
G1 F1800.000 X70.799 Y48.171 E13.72277
G0 F7200.00000 X70.799 Y47.605
G1 F1800.000 X82.392 Y59.199 E14.03118
G0 F7200.00000 X82.958 Y59.199
G1 F1800.000 X70.799 Y47.040 E14.35463
G0 F7200.00000 X70.799 Y46.474
G1 F1800.000 X83.524 Y59.199 E14.69315
G0 F7200.00000 X84.089 Y59.199
G1 F1800.000 X70.799 Y45.908 E15.04670
G0 F7200.00000 X70.799 Y45.343
G1 F1800.000 X84.655 Y59.199 E15.41530
G0 F7200.00000 X85.221 Y59.199
G1 F1800.000 X70.799 Y44.777 E15.79896
G0 F7200.00000 X70.799 Y44.211
G1 F1800.000 X85.786 Y59.199 E16.19766
G0 F7200.00000 X86.352 Y59.199
G1 F1800.000 X70.799 Y43.646 E16.61140
G0 F7200.00000 X70.799 Y43.080
G1 F1800.000 X86.918 Y59.199 E17.04020
G0 F7200.00000 X87.483 Y59.199
G1 F1800.000 X70.799 Y42.514 E17.48404
G0 F7200.00000 X70.799 Y41.949
G1 F1800.000 X88.049 Y59.199 E17.94293
G0 F7200.00000 X88.615 Y59.199
G1 F1800.000 X70.799 Y41.383 E18.41687
G0 F7200.00000 X70.799 Y40.817
G1 F1800.000 X89.181 Y59.199 E18.90588
G0 F7200.00000 X89.199 Y58.652
G1 F1800.000 X71.347 Y40.800 E19.38078
G0 F7200.00000 X71.912 Y40.800
G1 F1800.000 X89.199 Y58.086 E19.84063
G0 F7200.00000 X89.199 Y57.521
G1 F1800.000 X72.478 Y40.800 E20.28545
G0 F7200.00000 X73.044 Y40.800
G1 F1800.000 X89.199 Y56.955 E20.71521
G0 F7200.00000 X89.199 Y56.389
G1 F1800.000 X73.609 Y40.800 E21.12992
G0 F7200.00000 X74.175 Y40.800
G1 F1800.000 X89.199 Y55.823 E21.52958
G0 F7200.00000 X89.199 Y55.258
G1 F1800.000 X74.741 Y40.800 E21.91419
G0 F7200.00000 X75.306 Y40.800
G1 F1800.000 X89.199 Y54.692 E22.28376
G0 F7200.00000 X89.199 Y54.126
G1 F1800.000 X75.872 Y40.800 E22.63828
G0 F7200.00000 X76.438 Y40.800
G1 F1800.000 X89.199 Y53.561 E22.97775
G0 F7200.00000 X89.199 Y52.995
G1 F1800.000 X77.003 Y40.800 E23.30217
G0 F7200.00000 X77.569 Y40.800
G1 F1800.000 X89.199 Y52.429 E23.61154
G0 F7200.00000 X89.199 Y51.864
G1 F1800.000 X78.135 Y40.800 E23.90587
G0 F7200.00000 X78.700 Y40.800
G1 F1800.000 X89.199 Y51.298 E24.18515
G0 F7200.00000 X89.199 Y50.732
G1 F1800.000 X79.266 Y40.800 E24.44938
G0 F7200.00000 X79.832 Y40.800
G1 F1800.000 X89.199 Y50.167 E24.69856
G0 F7200.00000 X89.199 Y49.601
G1 F1800.000 X80.398 Y40.800 E24.93268
G0 F7200.00000 X80.963 Y40.800
G1 F1800.000 X89.199 Y49.035 E25.15177
G0 F7200.00000 X89.199 Y48.470
G1 F1800.000 X81.529 Y40.800 E25.35580
G0 F7200.00000 X82.095 Y40.800
G1 F1800.000 X89.199 Y47.904 E25.54479
G0 F7200.00000 X89.199 Y47.338
G1 F1800.000 X82.660 Y40.800 E25.71872
G0 F7200.00000 X83.226 Y40.800
G1 F1800.000 X89.199 Y46.772 E25.87761
G0 F7200.00000 X89.199 Y46.207
G1 F1800.000 X83.792 Y40.800 E26.02144
G0 F7200.00000 X84.357 Y40.800
G1 F1800.000 X89.199 Y45.641 E26.15024
G0 F7200.00000 X89.199 Y45.075
G1 F1800.000 X84.923 Y40.800 E26.26397
G0 F7200.00000 X85.489 Y40.800
G1 F1800.000 X89.199 Y44.510 E26.36267
G0 F7200.00000 X89.199 Y43.944
G1 F1800.000 X86.054 Y40.800 E26.44632
G0 F7200.00000 X86.620 Y40.800
G1 F1800.000 X89.199 Y43.378 E26.51491
G0 F7200.00000 X89.199 Y42.813
G1 F1800.000 X87.186 Y40.800 E26.56846
G0 F7200.00000 X87.751 Y40.800
G1 F1800.000 X89.199 Y42.247 E26.60697
G0 F7200.00000 X89.199 Y41.681
G1 F1800.000 X88.317 Y40.800 E26.63042
G0 F7200.00000 X88.883 Y40.800
G1 F1800.000 X89.199 Y41.116 E26.63883
G0 F7200.00000 X89.000 Y41.116
;LAYER:1
M106 S63.750
G1 F1500.000 E22.13883
G0 F7200.00000 X89.000 Y41.116 Z0.400
G0 X70.628 Y40.628
G0 X70.600 Y40.600
G0 X68.540 Y40.440
G0 X60.200 Y39.800
;TYPE:SUPPORT
G1 F1500.000 E26.63883
G1 F2250.00000 X58.520 Y39.800 E26.64936
G1 X58.520 Y60.200 E26.77727
G1 X60.200 Y60.200 E26.78781
G0 F7200.00000 X58.520 Y60.200
G1 F2250.000 X55.860 Y60.200 E26.80448
G1 X55.860 Y39.800 E26.93240
G1 X53.200 Y39.800 E26.94907
G1 X53.200 Y60.200 E27.07699
G1 X50.540 Y60.200 E27.09366
G1 X50.540 Y39.800 E27.22158
G1 X47.880 Y39.800 E27.23826
G1 X47.880 Y60.200 E27.36617
G1 X45.220 Y60.200 E27.38285
G1 X45.220 Y39.800 E27.51076
G1 X42.560 Y39.800 E27.52744
G1 X42.560 Y60.200 E27.65535
G1 X39.900 Y60.200 E27.67203
G1 X39.800 Y60.200 E27.67265
G1 X39.900 Y39.800 E27.80057
G1 X39.900 Y60.200 E27.92848
G1 F1500.00000 E23.42848
G0 F7200.00000 X68.459 Y59.454
G0 X70.628 Y59.372
G0 X70.799 Y58.919
;TYPE:SKIN
G1 F1500.000 E27.92848
G1 F1800.00000 X71.079 Y59.199 E27.93096
G0 F7200.00000 X71.644 Y59.199
G1 F1800.000 X70.799 Y58.353 E27.93846
G0 F7200.00000 X70.799 Y57.788
G1 F1800.000 X72.210 Y59.199 E27.95097
G0 F7200.00000 X72.776 Y59.199
G1 F1800.000 X70.799 Y57.222 E27.96850
G0 F7200.00000 X70.799 Y56.656
G1 F1800.000 X73.341 Y59.199 E27.99105
G0 F7200.00000 X73.907 Y59.199
G1 F1800.000 X70.799 Y56.091 E28.01861
G0 F7200.00000 X70.799 Y55.525
G1 F1800.000 X74.473 Y59.199 E28.05119
G0 F7200.00000 X75.038 Y59.199
G1 F1800.000 X70.799 Y54.959 E28.08878
G0 F7200.00000 X70.799 Y54.394
G1 F1800.000 X75.604 Y59.199 E28.13139
G0 F7200.00000 X76.170 Y59.199
G1 F1800.000 X70.799 Y53.828 E28.17901
G0 F7200.00000 X70.799 Y53.262
G1 F1800.000 X76.735 Y59.199 E28.23165
G0 F7200.00000 X77.301 Y59.199
G1 F1800.000 X70.799 Y52.697 E28.28931
G0 F7200.00000 X70.799 Y52.131
G1 F1800.000 X77.867 Y59.199 E28.35199
G0 F7200.00000 X78.432 Y59.199
G1 F1800.000 X70.799 Y51.565 E28.41967
G0 F7200.00000 X70.799 Y51.000
G1 F1800.000 X78.998 Y59.199 E28.49238
G0 F7200.00000 X79.564 Y59.199
G1 F1800.000 X70.799 Y50.434 E28.57010
G0 F7200.00000 X70.799 Y49.868
G1 F1800.000 X80.130 Y59.199 E28.65284
G0 F7200.00000 X80.695 Y59.199
G1 F1800.000 X70.799 Y49.303 E28.74059
G0 F7200.00000 X70.799 Y48.737
G1 F1800.000 X81.261 Y59.199 E28.83336
G0 F7200.00000 X81.827 Y59.199
G1 F1800.000 X70.799 Y48.171 E28.93115
G0 F7200.00000 X70.799 Y47.605
G1 F1800.000 X82.392 Y59.199 E29.03396
G0 F7200.00000 X82.958 Y59.199
G1 F1800.000 X70.799 Y47.040 E29.14178
G0 F7200.00000 X70.799 Y46.474
G1 F1800.000 X83.524 Y59.199 E29.25461
G0 F7200.00000 X84.089 Y59.199
G1 F1800.000 X70.799 Y45.908 E29.37247
G0 F7200.00000 X70.799 Y45.343
